X:9
T:Jackpot Breakdown
C:Jim Magill
R:reel
M:4/4
L:1/8
Z:abc by Bruce Osborne - bosborne@kos.net
K:A
(3efg|a2ed cAA2|cAce a2Bc|d2B2 BcBA|GABc d2(3efg|
a2ed cAA2|cAce a2Bc|d2BA GABd|c2A2 A2:|
|:z2|EAce a2e2|cded c2A2|EAce aecA|d2B2 B4|
EAce a2e2|cded c2A2|d2BA GABd|c2A2 A2:|
